modules/linea-weather/icons/weather-waxing-gibbous.svg

<svg xmlns="http://www.w3.org/2000/svg" width="64" height="64" viewBox="0 0 64 64"><circle fill="none" stroke="#000" stroke-width="2" stroke-miterlimit="10" cx="32" cy="32" r="31"/><path fill="none" stroke="#000" stroke-width="2" stroke-miterlimit="10" d="M41 62c-13.243-3.528-22-15.646-22-30 0-14.355 8.756-26.473 22-30m-7 3H17m10 6H9m13 6H5m15 6H2m17 6H1m18 6H1m19 6H2m21 6H5m22 6H9m25 6H17"/></svg>

<svg xmlns="http://www.w3.org/2000/svg" width="64" height="64" viewBox="0 0 64 64"><circle fill="none" stroke="#000" stroke-width="2" stroke-miterlimit="10" cx="32" cy="32" r="31"/><path fill="none" stroke="#000" stroke-width="2" stroke-miterlimit="10" d="M41 62c-13.243-3.528-22-15.646-22-30 0-14.355 8.756-26.473 22-30M34 5H17M27 11H9M22 17H5M20 23H2M19 29H1M19 35H1M20 41H2M23 47H5M27 53H9M34 59H17"/></svg>
